symbolic/24x24/apps/org.eu.encom.spectral.svg

<svg xmlns="http://www.w3.org/2000/svg" width="24" height="24" version="1">
 <rect style="opacity:0.2" width="20" height="20" x="2" y="2.5" rx="6" ry="6"/>
 <rect style="fill:#e4e4e4" width="20" height="20" x="2" y="2" rx="6" ry="6"/>
 <path style="opacity:0.2;fill:#ffffff" d="M 8,2 C 4.676,2 2,4.676 2,8 v 0.5 c 0,-3.324 2.676,-6 6,-6 h 8 c 3.324,0 6,2.676 6,6 V 8 C 22,4.676 19.324,2 16,2 Z"/>
 <path style="opacity:0.1" d="M 11.360108,19.476172 C 9.2682445,19.274193 7.3377785,18.125102 6.189998,16.398716 5.113063,14.778893 4.7511691,12.858501 5.169499,10.983417 5.325197,10.285528 5.718354,9.274448 5.799093,9.364299 c 0.017675,0.01966 0.072946,0.202014 0.122819,0.405195 0.2941515,1.198342 1.0605365,2.074637 2.3495245,2.686466 0.82299,0.390635 1.608679,0.618246 3.2155385,0.931525 1.490213,0.290529 1.875588,0.442132 2.477017,0.743692 0.65766,0.329752 1.068074,0.71113 1.314837,1.221809 0.223691,0.462939 0.276708,0.765916 0.254779,1.456023 -0.01674,0.527147 -0.03261,0.632719 -0.138436,0.923557 -0.382834,0.988648 -1.189793,1.392643 -1.92378,1.575794 -0.658069,0.162714 -1.444372,0.232207 -2.111284,0.167812 z m 6.77523,-3.970393 C 17.873844,13.956212 17.012286,12.822883 15.538805,12.090199 14.68475,11.66552 14.08538,11.490625 12.093258,11.084771 10.596173,10.779769 9.823113,10.606805 9.2719425,10.343313 8.6143635,10.028961 8.2111205,9.540034 8.0776315,8.895229 8.01168,8.5766765 8.0213355,7.7993205 8.0947815,7.510285 8.242692,6.9284625 8.6729105,6.310578 9.084782,6.0884565 9.1946905,6.029178 9.4555075,5.9238105 9.6643685,5.8543065 12.63525,4.8656384 16.074912,5.9975965 17.815347,8.607348 c 1.070746,1.605567 1.43376,3.539463 1.014922,5.406783 -0.156865,0.69937 -0.519382,1.645572 -0.630463,1.645572 -0.02117,0 -0.05017,-0.06926 -0.06447,-0.153924 z"/>
 <path style="fill:#329289" d="M 11.360108,18.976172 C 9.2682445,18.774193 7.3377785,17.625102 6.189998,15.898716 5.113063,14.278893 4.7511691,12.358501 5.169499,10.483417 5.325197,9.785528 5.718354,8.774448 5.799093,8.864299 c 0.017675,0.01966 0.072946,0.202014 0.122819,0.405195 0.2941515,1.198342 1.0605365,2.074637 2.3495245,2.686466 0.82299,0.390635 1.608679,0.618246 3.2155385,0.931525 1.490213,0.290529 1.875588,0.442132 2.477017,0.743692 0.65766,0.329752 1.068074,0.71113 1.314837,1.221809 0.223691,0.462939 0.276708,0.765917 0.254779,1.456023 -0.01674,0.527147 -0.03261,0.632719 -0.138436,0.923557 -0.382834,0.988648 -1.189793,1.392643 -1.92378,1.575794 -0.658069,0.162714 -1.444372,0.232207 -2.111284,0.167812 z m 6.77523,-3.970393 C 17.873844,13.456212 17.012286,12.322883 15.538805,11.590199 14.68475,11.16552 14.08538,10.990625 12.093258,10.584771 10.596173,10.279769 9.823113,10.106805 9.2719425,9.843313 8.6143635,9.5289605 8.2111205,9.040034 8.0776315,8.395229 8.01168,8.0766765 8.0213355,7.2993205 8.0947815,7.010285 8.242692,6.4284625 8.6729105,5.810578 9.084782,5.5884565 9.1946905,5.529178 9.4555075,5.4238105 9.6643685,5.3543065 12.63525,4.3656383 16.074912,5.4975965 17.815347,8.107348 c 1.070746,1.605567 1.43376,3.539463 1.014922,5.406783 -0.156865,0.69937 -0.519382,1.645572 -0.630463,1.645572 -0.02117,0 -0.05017,-0.06926 -0.06447,-0.153924 z"/>
</svg>

<svg xmlns="http://www.w3.org/2000/svg" width="24" height="24" version="1"><rect style="opacity:.2" width="20" height="20" x="2" y="2.5" rx="6" ry="6"/><rect style="fill:#e4e4e4" width="20" height="20" x="2" y="2" rx="6" ry="6"/><path style="opacity:.2;fill:#fff" d="M8 2C4.676 2 2 4.676 2 8v.5c0-3.324 2.676-6 6-6h8c3.324 0 6 2.676 6 6V8c0-3.324-2.676-6-6-6z"/><path style="opacity:.1" d="M11.36 19.476c-2.092-.202-4.022-1.35-5.17-3.077-1.077-1.62-1.439-3.54-1.02-5.416.155-.697.548-1.709.63-1.619.017.02.072.202.122.405.294 1.199 1.06 2.075 2.35 2.687.822.39 1.608.618 3.215.931 1.49.291 1.876.443 2.477.744.658.33 1.068.711 1.315 1.222.224.463.277.766.255 1.456-.017.527-.033.633-.139.924-.383.988-1.19 1.392-1.924 1.575a6.627 6.627 0 0 1-2.11.168zm6.775-3.97c-.261-1.55-1.123-2.683-2.596-3.416-.854-.424-1.454-.6-3.446-1.005-1.497-.305-2.27-.478-2.821-.742-.658-.314-1.06-.803-1.194-1.448-.066-.318-.057-1.096.017-1.385.148-.582.578-1.2.99-1.422.11-.059.37-.164.58-.234 2.97-.988 6.41.144 8.15 2.753a6.954 6.954 0 0 1 1.015 5.407c-.157.7-.52 1.646-.63 1.646-.021 0-.05-.07-.065-.154z"/><path style="fill:#329289" d="M11.36 18.976c-2.092-.202-4.022-1.35-5.17-3.077-1.077-1.62-1.439-3.54-1.02-5.416.155-.697.548-1.709.63-1.619.017.02.072.202.122.405.294 1.199 1.06 2.075 2.35 2.687.822.39 1.608.618 3.215.931 1.49.291 1.876.443 2.477.744.658.33 1.068.711 1.315 1.222.224.463.277.766.255 1.456-.017.527-.033.633-.139.924-.383.988-1.19 1.392-1.924 1.575a6.627 6.627 0 0 1-2.11.168zm6.775-3.97c-.261-1.55-1.123-2.683-2.596-3.416-.854-.424-1.454-.6-3.446-1.005-1.497-.305-2.27-.478-2.821-.742-.658-.314-1.06-.803-1.194-1.448-.066-.318-.057-1.096.017-1.385.148-.582.578-1.2.99-1.422.11-.059.37-.164.58-.234 2.97-.988 6.41.144 8.15 2.753a6.954 6.954 0 0 1 1.015 5.407c-.157.7-.52 1.646-.63 1.646-.021 0-.05-.07-.065-.154z"/></svg>
